X:1
T:Tivoli -- Jig
R:jig
B:Ryan's Mammoth Collection
N: 89 463
Z: Contributed by Ray Davies,  ray:davies99.freeserve.co.uk
M:6/8
L:1/8
K:D
u(c/d/)|\
eee eee | efe cBA | ddd fed | cAc e2 (c/d/) |
eee eee | efd cBA | ddd fga | gec d2 :|
|:u(f/g/)|\
aga geg | fed cBA | ddd fed | cAc e2 (f/g/) |
aaf gge | ffd cBA | ddd fga | gec d2 :|
